X: 1
T: Cul A Dun
M: 9/8
L: 1/8
R: slip jig
K: Gmaj
|: Gba gfe dcB | cag fed cBA | Bgd bag dcB | Aec agf edc |
Bcd dBd b2 a | gdB Bcd e2d | efg dBA B2A | G>GG G3 z3 :|
Bcd dBd b2a | gdB Bcd e2d | efg dBA B2A | G>Bd e2g e2d |
Bcd dBd b2a | gdB Bcd e2d | efg dBA B2A | G>GG G3 z3 ||
